X:157
T:Rockmills Hornpipe
H:Copied from an old Cork music book.  Rockmills near Mitchelstown, Co.
H:Cork.
B:Joyce, P. W.; "Old Irish Folk Music and Songs"
R:hornpipe
L:1/8
M:C
Z:Allan Garvin
K:A
EAAA Acec|cBBA Bceg|agae fece|eccA BFAF|
EAAA Acec|cBBA Aceg|agae fece|edBG A2A2||
ceed ceag|fgfe ceag|agae fece|eccA BFAF|
EAAA Acec|cBBA Bceg|agae edcf|edBG A2A2||
